X:1
T:James Gibb editions
T:Gesù sommo conforto - Verovio
%%score { 1 | 2 } 3
L:1/8
Q:1/4=52
M:4/4
K:F
V:1 treble nm="Soprano I" snm="S"
V:2 treble 
V:3 treble nm="Alto" snm="A"
V:1
"^adagio molto""^Gesù sommo conforto""^Simone Verovio\n(1550?-1607)"!mf! d4 d2!<(! !^!d2 | %1
w: Ge- sù, som-|
w: Ge- sù, to|
 _e2 f2!<)! g4 | ^f2 z"^meno" g =f=edf[Q:1/4=26] |[M:4/4][Q:1/4=26][Q:1/4=26] e2 d2 z BAG | %4
w: mo con- for-|to Tu sei tutt' il mio~a-|mo- re, E'l mio be-|
w: hai il mon-|do, So- a- ve- men- te|pie- no, D'a- mor san-|
 FG AA/d/ cBAG | c>B A2 !fermata!G4 ||"^più mosso"[Q:1/4=60]!<(! d6 c!<)!B |!>(! A6!>)! !>!c2- | %8
w: a- to por- to e San- to Re- den-|to\- * * re.|O gran bon-|tà! dol\-|
w: to~e gio- con- do, Ch'o- gni cor fa se-|re\- * * no.|||
 cc B2 A2 z"^adagio"[Q:1/4=46] A |[Q:1/4=46][Q:1/4=46]!<(! Bc!<)! d2 z dcB | AB!>(! c3 B!>)!AA | %11
w: * ce pie- tà! Fe-|li- ce quel, fe- li- ce|quel che te- co~u- ni- to|
w: |||
 !fermata!G8 |] %12
w: stà.|
w: |
V:2
!mf! B4 A2 !^!B2 | c2 B (d2 c/B/ c2) |"^," ddcB AG A=B |[M:4/4] ^c2"^," df ed=cB | %4
w: Ge- sù, som-|mo con- for\- * * *|to Tu sei tutt' il ~mio~a\-~ mo\- *|* re, E'l mio be- a- to|
w: Ge- sù, tu|hai il mon\- * * *|do, So- a- ve- men- te pie\- *|* no, D'a- mor san- to~e gio-|
 (d3/2c/4B/4 c)c/B/ AdcB | (A/"^,"G/ G2 ^F) !fermata!G4 ||!<(! B6 A!<)!G |!>(! =F6!>)! !>!A2- | %8
w: por\- * * * to e San- to Re- den-|to\- * * * re.|O gran bon-|tà! dol\-|
w: con\- * * * do, Ch'o- gni cor ga se-|re- * * * no.|||
 AA G2 ^F2 z F | GAB!<(!d ef!<)! g2 | z d (A/B/c/B/)!>(! AGG!>)!^F | !fermata!G8 |] %12
w: * ce pie- tà! Fe-|li- ce quel, fe- li- ce quel|che te\- * * * co u- ni- to|stà.|
w: ||||
V:3
!mf! G4 ^F2!<(! G2 | C2 D2!<)! _E4 | D2 z"^meno" G, D=E=FD |[M:4/4] A,2 D2 z B,FG | %4
w: Ge- sù, som-|mo con- for-|to Tu sei tutt' il mio~a-|mo- re, E'l mio be-|
w: Ge- sù, tu|hai ill mon-|do. So- a- ve- men- te|pie- no, D'a- mor san-|
 DG FF/B,/ F3 G | CC D2 !fermata!G,4 || z2 G,2 B,2 C2 |"^," D4!>(! !^!F4!>)! | F,2 G,2 D2 z D | %9
w: a- to por- to e San- to|Re- den- to- re.|O gran bon-|tà! dol-|ce pie- tà! Fe-|
w: to~e gio- con- do, Ch'o- gni cor|fa se- re- no.||||
 GF B,2 z DEG | FB,!>(! F3 G!>)!CD | !fermata!G,8 |] %12
w: li- ce quel, fe- li- ce|quel che te- co~u- ni- to|stà.|
w: |||

